X: 3
T: Froggie on the Carport (R-171)
M: C|
L: 1/8
R: reel
K: A
cB|"A"Aceg aga2|Aceg aga2|"G"edef =gfgf|edef =gedB|
"A"Aceg aga2 |Aceg aga2 |"E"efed cAB2|"A"A4 A2:|
|:cB|"A"ABcd efec|"D"d3e d2dB |"G"=GAB=c dedB|"C"=c3d c2cB|
"A"ABcd ecAe|a2g2 "G"=g4 |"E"efed cAB2 |"A"A4 A2:|
% %text Tag ending: Replace last measure with
|"E"efed cAB2 |"E"efed cAB2|"A"A4 A2|| 
% %text Also called Doggie on the Carpet or Doggie on the Carport.
% %text 10/17/11 

#include "RightHeader.h"
% ---------- set 87 ----------
% Booth (A) / Julianne Johnson (D) / Benton's Dream (A mixolydian)
% %scale .7
% %text Set 87
% %vskip -.7cm
$SmallLMargin
$SmallRMargin
